icons/ansi-b-landscape-24.svg

<?xml version="1.0" encoding="UTF-8"?><svg id="icons" xmlns="http://www.w3.org/2000/svg" viewBox="0 0 24 24"><defs><style>.cls-1{fill:none;}.cls-1,.cls-2,.cls-3{stroke-width:0px;}.cls-2{opacity:.25;}</style></defs><rect class="cls-1" width="24" height="24"/><path class="cls-2" d="M16,7H1v-3h15v3Z"/><path class="cls-3" d="M17.29102,3H0v18h6v-1H1V4h15v6h6v10h-6v1h7v-12.28998l-5.70898-5.71002ZM22,9h-5v-5h.20001l4.79999,4.79999v.20001ZM12.35645,17.16028c.39575-.44226.64355-1.02008.64355-1.66028,0-1.38074-1.11926-2.5-2.5-2.5h-2.5v9h3.5c1.38074,0,2.3-1.11932,2.3-2.5,0-1.07849-.48658-1.98901-1.44355-2.33972ZM9,14h1.5c.82715,0,1.5.67285,1.5,1.5s-.67285,1.5-1.5,1.5h-1.5v-3ZM11.5,21h-2.5v-3h2.5c.82715,0,1.5.67285,1.5,1.5s-.67285,1.5-1.5,1.5Z"/></svg>

<svg xmlns="http://www.w3.org/2000/svg" viewBox="0 0 24 24"><path stroke-width="0" fill="none" d="M0 0h24v24H0z"/><path d="M16 7H1V4h15v3z" opacity=".25" stroke-width="0"/><path d="M17.291 3H0v18h6v-1H1V4h15v6h6v10h-6v1h7V8.71L17.291 3zM22 9h-5V4h.2L22 8.8V9zm-9.644 8.16A2.48 2.48 0 0 0 13 15.5a2.5 2.5 0 0 0-2.5-2.5H8v9h3.5c1.38 0 2.3-1.12 2.3-2.5 0-1.078-.487-1.989-1.444-2.34zM9 14h1.5c.827 0 1.5.673 1.5 1.5s-.673 1.5-1.5 1.5H9v-3zm2.5 7H9v-3h2.5c.827 0 1.5.673 1.5 1.5s-.673 1.5-1.5 1.5z" stroke-width="0"/></svg>
